mono-glyphs/home-w.svg

<svg xmlns="http://www.w3.org/2000/svg" width="1024" height="1024" fill="none" viewBox="0 0 1024 1024">
  <path fill="#fff" d="M170.844 1024c-18.865 0-36.572-3.56-53.122-10.68-16.551-7.12-31.054-16.904-43.512-29.362-12.458-12.457-22.246-26.961-29.364-43.512-7.119-16.55-10.678-34.257-10.678-53.122v-415.9c0-13.525 2.67-26.694 8.008-39.507 5.34-12.814 12.636-23.847 21.89-33.102L428.178 35.237c11.39-11.39 24.292-20.11 38.707-26.16C481.3 3.024 496.516 0 512.533 0c16.017 0 31.232 3.025 45.647 9.076 14.416 6.05 27.317 14.771 38.707 26.16L961 398.816c9.255 9.255 16.551 20.288 21.89 33.102 5.338 12.813 8.008 25.982 8.008 39.507v415.9c0 18.865-3.559 36.572-10.678 53.122-7.119 16.551-16.906 31.055-29.364 43.512-12.458 12.458-26.961 22.242-43.512 29.362-16.55 7.12-34.257 10.68-53.122 10.68H649.209c-9.61 0-18.598-1.78-26.962-5.34-8.364-3.56-15.571-8.36-21.622-14.41-6.051-6.055-10.856-13.263-14.415-21.626-3.559-8.364-5.339-17.352-5.339-26.962V682.311H444.195v273.351c0 9.61-1.78 18.508-5.339 26.695-3.559 8.186-8.453 15.394-14.682 21.623-6.228 6.23-13.436 11.12-21.622 14.68-8.187 3.56-17.085 5.34-26.695 5.34H170.844Zm205.013-68.338V682.311c0-9.61 1.78-18.508 5.339-26.695 3.559-8.186 8.454-15.394 14.682-21.622 6.228-6.229 13.436-11.123 21.623-14.682 8.186-3.559 17.084-5.339 26.694-5.339h136.676c9.254 0 18.063 1.78 26.427 5.339s15.661 8.453 21.89 14.682c6.228 6.228 11.123 13.525 14.682 21.889 3.559 8.364 5.339 17.173 5.339 26.428v273.351h205.013c9.61 0 18.508-1.78 26.695-5.339 8.186-3.559 15.394-8.453 21.622-14.682 6.229-6.228 11.123-13.436 14.682-21.622 3.559-8.187 5.339-17.085 5.339-26.695v-415.9c0-9.254-3.382-17.262-10.144-24.025L548.837 83.287c-9.965-9.966-22.067-14.95-36.304-14.95-14.237 0-26.339 4.984-36.305 14.95L112.65 447.399c-6.763 6.763-10.144 14.771-10.144 24.025v415.9c0 9.61 1.78 18.598 5.339 26.962s8.364 15.571 14.415 21.622c6.051 6.051 13.258 10.856 21.622 14.415 8.364 3.559 17.352 5.339 26.962 5.339h205.013Z"/>
</svg>

<svg width="1024" height="1024" viewBox="0 0 1024 1024" fill="none" xmlns="http://www.w3.org/2000/svg">
<g clip-path="url(#clip0_32_115)">
<mask id="mask0_32_115" style="mask-type:luminance" maskUnits="userSpaceOnUse" x="34" y="0" width="957" height="1024">
<path d="M990.898 0H34.168V1024H990.898V0Z" fill="white"/>
</mask>
<g mask="url(#mask0_32_115)">
<path d="M170.844 1024C151.979 1024 134.272 1020.44 117.722 1013.32C101.171 1006.2 86.6675 996.416 74.2097 983.958C61.7522 971.501 51.9643 956.997 44.8458 940.446C37.7272 923.896 34.168 906.189 34.168 887.324V471.424C34.168 457.899 36.8374 444.73 42.1763 431.917C47.5152 419.103 54.8117 408.07 64.0658 398.815L428.178 35.2367C439.568 23.8471 452.47 15.1269 466.885 9.07612C481.3 3.02541 496.516 6.40667e-05 512.533 0C528.55 6.40667e-05 543.765 3.02541 558.18 9.07612C572.596 15.1269 585.497 23.8471 596.887 35.2367L961 398.815C970.255 408.07 977.551 419.103 982.89 431.917C988.228 444.73 990.898 457.899 990.898 471.424V887.324C990.898 906.189 987.339 923.896 980.22 940.446C973.101 956.997 963.314 971.501 950.856 983.958C938.398 996.416 923.895 1006.2 907.344 1013.32C890.794 1020.44 873.087 1024 854.222 1024H649.209C639.599 1024 630.611 1022.22 622.247 1018.66C613.883 1015.1 606.676 1010.3 600.625 1004.25C594.574 998.195 589.769 990.987 586.21 982.624C582.651 974.26 580.871 965.272 580.871 955.662V682.311H444.195V955.662C444.195 965.272 442.415 974.17 438.856 982.357C435.297 990.543 430.403 997.751 424.174 1003.98C417.946 1010.21 410.738 1015.1 402.552 1018.66C394.365 1022.22 385.467 1024 375.857 1024H170.844ZM375.857 955.662V682.311C375.857 672.701 377.637 663.803 381.196 655.616C384.755 647.43 389.65 640.222 395.878 633.994C402.106 627.765 409.314 622.871 417.501 619.312C425.687 615.753 434.585 613.973 444.195 613.973H580.871C590.125 613.973 598.934 615.753 607.298 619.312C615.662 622.871 622.959 627.765 629.188 633.994C635.416 640.222 640.311 647.519 643.87 655.883C647.429 664.247 649.209 673.056 649.209 682.311V955.662H854.222C863.832 955.662 872.73 953.882 880.917 950.323C889.103 946.764 896.311 941.87 902.539 935.641C908.768 929.413 913.662 922.205 917.221 914.019C920.78 905.832 922.56 896.934 922.56 887.324V471.424C922.56 462.17 919.178 454.162 912.416 447.399L548.837 83.2868C538.872 73.3209 526.77 68.3379 512.533 68.3379C498.296 68.3379 486.194 73.3209 476.228 83.2868L112.65 447.399C105.887 454.162 102.506 462.17 102.506 471.424V887.324C102.506 896.934 104.286 905.922 107.845 914.286C111.404 922.65 116.209 929.857 122.26 935.908C128.311 941.959 135.518 946.764 143.882 950.323C152.246 953.882 161.234 955.662 170.844 955.662H375.857Z" fill="white"/>
</g>
</g>
<defs>
<clipPath id="clip0_32_115">
<rect width="956.73" height="1024" fill="white" transform="translate(34.168)"/>
</clipPath>
</defs>
</svg>
